!!!!SEGMENT: pl-wtm--r-2296_troschel-wilhelm--hymn.krn
!!!cenid: 18xx:2257
!!!COM: Troschel, Wilhelm
!!!COM-rismid: pe30024099
!!!CDT: 1823/08/23-1887/03/02
!!!CNT: Polish
!!!OTL: Hymn
!!!PDT:
!!!AGN: Sacred; Hymn
!!!SMS-siglum: PL-Wtm
!!!SMS-shelfmark: R 2296
!!!SMS-shelfwork: W
!!!SMS-variant:
!!!SMS-altvar:
!!!NIFC-rismid: 1001113834
!!!OMD: Andante maestoso
!!!system-decoration: s1{(s2,s3)}
**kern	**kern	**dynam	**kern	**text	**dynam
*part2	*part2	*part2	*part1	*part1	*part1
*staff3	*staff2	*	*staff1	*staff1	*
*	*I"Fortepian lub Organ	*	*I"Spiew	*	*
*	*I'Pf.	*	*I'V.	*	*
*clefF4	*clefG2	*	*clefG2	*	*
*k[b-]	*k[b-]	*	*k[b-]	*	*
*M4/4	*M4/4	*	*M4/4	*	*
*met(c)	*met(c)	*	*met(c)	*	*
=1	=1	=1	=1	=1	=1
*2\right	*2\right	*	*	*	*
!!LO:TX:a:t=P:problem:all\right:global
!!LO:TX:a:t=P:problem:W całym źródle rożne poprawki naniesione ołówkiem [nieuwzględnione w kodzie]; poprawki nanieniose tym samym atramentem uwzględnione
!LO:TX:b:Bi:t=molto legato	!	!	!	!	!
!	!	!LO:DY:b:rj	!	!	!
2F 2C 2AA 2FF/	(>2ff 2cc 2a 2f/	f	1r	.	.
4A 4F 4AA\	4cc 4f 4c/	.	.	.	.
4B- 4BB-\	4dd 4f 4d/	.	.	.	.
=2	=2	=2	=2	=2	=2
*	*^	*	*	*	*
2.c 2.C\	2.g/	4f\	.	1r	.	.
.	.	8e\L	.	.	.	.
.	.	8d\J	.	.	.	.
.	.	4e\	.	.	.	.
4A 4AA\	4a 4f/)	4c\	.	.	.	.
=3	=3	=3	=3	=3	=3	=3
4G 4GG/	(>[>2b- 2f/	4d\	.	1r	.	.
4F 4FF/	.	4d-X\	.	.	.	.
2E 2EE/	8b-/L]	2g 2c\	.	.	.	.
.	8a/	.	>	.	.	.
.	8b-/	.	.	.	.	.
.	8cc/J	.	.	.	.	.
=4	=4	=4	=4	=4	=4	=4
*^	*	*	*	*	*	*
*	*2\left	*	*	*	*	*	*
2F/	[<4FF\	4b- 4g/	1c	.	1r	.	.
.	8FF\L]	4a 4f/	.	.	.	.	.
.	8AA\J	.	.	.	.	.	.
2C/	2C\	2g 2e/)	.	]	.	.	.
!!LO:LB:g=original
*	*2\right	*	*	*	*	*	*
*v	*v	*	*	*	*	*	*
*	*v	*v	*	*	*	*
=5	=5	=5	=5	=5	=5
!	!	!LO:DY:b:rj	!	!	!
2D 2DD/	(>2f 2d 2A/	f	1r	.	.
4GG 4GGG/	4g 4d 4B-/	.	.	.	.
4EE 4EEE/	4b- 4g 4d 4B-/	.	.	.	.
=6	=6	=6	=6	=6	=6
*	*^	*	*	*	*
2AA 2AAA/	4.a/	2c#X 2A\	.	1r	.	.
.	8g/	.	.	.	.	.
4DD/	4f 4d 4A/	4ryy	.	.	.	.
4GG 4GGG/	4g 4d 4B-/)	4ryy	.	.	.	.
=7	=7	=7	=7	=7	=7	=7
1C 1CC	(>4c 4A/	4ryy	.	1r	.	.
.	[>4f^>/	4Bn 4G#X\	.	.	.	.
.	8f/L]	2B-X 2Gn\	.	.	.	.
.	8d/	.	>	.	.	.
.	8e/	.	.	.	.	.
.	8c/J	.	.	.	.	.
*	*v	*v	*	*	*	*
=8	=8	=8	=8	=8	=8
[>4F [<4FF\	2f 2A/)	]	1r	.	.
8F]L 8FF\]	.	.	.	.	.
(>8EJ 8EE\	.	.	.	.	.
4D 4DD/	2r	.	.	.	.
4C 4CC/)	.	.	.	.	.
!!LO:LB:g=original
=9	=9	=9	=9	=9	=9
*	*^	*	*	*	*
4BB- 4BBB-/	(>4d 4B- 4F/	4ryy	<	1r	.	.
4AA 4AAA/	4f 4c 4F/	4ryy	.	.	.	.
4GG 4GGG/	4b- 4d 4B-/	4ryy	[ >	.	.	.
4CC/	8a/L)	4e 4B-\	.	.	.	.
.	8g/J	.	]]	.	.	.
=10	=10	=10	=10	=10	=10	=10
[>1FF [<1FFF	[>1f	4.f 4.A\	.	1r	.	.
.	.	8e 8c\	.	.	.	.
.	.	4d 4B-\	.	.	.	.
.	.	4c 4A\	.	.	.	.
=11	=11	=11	=11	=11	=11	=11
1FF_> 1FFF_<	1f_>	4B- 4G\	>	1r	.	.
!	!LO:TX:a:Bi:t=rit&colon;	!	!	!	!	!
.	.	4d-X 4B-\	.	.	.	.
.	.	4c 4A\	.	.	.	.
.	.	4B- 4G\	.	.	.	.
=12	=12	=12	=12	=12	=12	=12
2.FF] 2.FFF/]	2.f/]	2.A 2.F\	]	1r;>	.	.
4r;>	4r;>	4ryy	.	.	.	.
!!LO:LB:g=original
=13	=13	=13	=13	=13	=13	=13
*	*	*	*	*2\right	*	*
!	!	!	!LO:DY:b:rj	!	!	!LO:DY:b:rj
4A 4F\	(>4a 4f 4c/	4ryy	p	4a/	Przed-	p
2B- 2F\	8.g/L	2e 2d-X\	sf	8.g/	-wie-	.
.	16a/Jk	.	.	16a/	-czny	.
.	4g/	.	.	4g/	Bo-	.
4A 4F\	4f/)	4c\	.	4f/	-że	.
*	*v	*v	*	*	*	*
=14	=14	=14	=14	=14	=14
!	!	!LO:DY:b:rj	!	!	!LO:DY:b:rj
4F 4C 4AA 4FF^</	4a 4f 4c 4A^>/	f	4a\	po-	f
4E 4C 4GG 4EE^</	4cc 4g 4c^>/	.	8.cc\	-tę-	.
.	.	.	16cc\	-żny	.
2D 2AA 2FF 2DD^</	2ff 2a 2f^>/	.	(>4ff^>\	Pa-	.
.	.	.	4a/)	-nie	.
=15	=15	=15	=15	=15	=15
*	*^	*	*	*	*
4BB- 4BBB-^</	4dd 4b- 4f 4d^>/	4ryy	.	4dd\	Cześć	.
4AA 4AAA^</	4cc 4f 4c^>/	4ryy	.	8cc\	To-	.
.	.	.	.	8dd\	-bie	.
4GG 4GGG/	8cc/L	4e 4c\	.	8cc\L	wie-	.
.	8b-/J	.	.	8b-\J	.	.
8FFL 8FFF/	8aL 8f 8c/	4ryy	.	8a/	-czna	.
8AAJ 8AAA/	8ccJ 8f 8c/	.	.	8cc\	i	.
!!LO:PB:g=original
=16	=16	=16	=16	=16	=16	=16
*^	*	*	*	*	*	*
*	*	*	*^	*	*	*	*
[>2C/	2CC\	2g/	4f/	2c\	.	2g/	chwa-	.
.	.	.	8e/L	.	.	.	.	.
.	.	.	8d/J	.	>	.	.	.
8C/L]	8C\L	4ryy	4e/	4ryy	.	4g/	-ła!	.
8BB-/J	8BB-\J	.	.	.	.	.	.	.
4AA/	4AA\	4a 4f#X 4d/	4ryy	4c\	]	4r	.	.
*	*	*	*v	*v	*	*	*	*
=17	=17	=17	=17	=17	=17	=17	=17
!	!	!	!	!	!LO:TX:a:Bi:t=dolce	!	!
!	!	!	!	!LO:DY:b:rj	!	!	!LO:DY:b:rj
(>8GG/L	(<2GG\	[>4b- [<4g/	2d 2B-\	p	4b-\	Wier-	p
8D/	.	.	.	.	.	.	.
8G/	.	8.b-]L 8.g/]	.	.	8.b-\	-ne-	.
8F/J)	.	.	.	.	.	.	.
.	.	16a/Jk	.	.	16a\	-go	.
(>8E/L	2C\)	2g/	2c\	.	4g/	lu-	.
8D/	.	.	.	.	.	.	.
8E/	.	.	.	.	4g/	-du	.
8C/J)	.	.	.	.	.	.	.
*	*	*v	*v	*	*	*	*
=18	=18	=18	=18	=18	=18	=18
(>8FF/L	(<2FF\	2a 2c 2A/	.	4a/	u-	.
8C/	.	.	.	.	.	.
8F/	.	.	.	8.a/	-słysz	.
8E/J)	.	.	.	.	.	.
.	.	.	.	16g/	wo-	.
(>8D/L	2BB-\)	2f 2B-/	.	4f/	-ła-	.
8C/	.	.	.	.	.	.
8D/	.	.	.	4f/	-nie,	.
8BB-/J)	.	.	.	.	.	.
!!LO:LB:g=original
=19	=19	=19	=19	=19	=19	=19
*	*	*^	*	*	*	*
(>8EEn/L	(<2EE\	2g 2B- 2G/	2ryy	.	4g/	Bo	.
8BB-/	.	.	.	.	.	.	.
8E/	.	.	.	.	8.g/	w To-	.
8D/J)	.	.	.	.	.	.	.
.	.	.	.	.	16f/	-bie	.
(>8C#X/L	2AA\)	4e/	2A\	.	4e/	na-	.
8G/	.	.	.	.	.	.	.
8F/	.	8d/L	.	.	8d/	-dzie-	.
8C#/J)	.	8e/J	.	.	8e/	-ja	.
=20	=20	=20	=20	=20	=20	=20	=20
2D/	4D\	(>4f/	8d\L	.	4f/	ca-	.
.	.	.	8A\J	.	.	.	.
.	4BB-\	8e/L	4G#X\	.	8e/L	.	.
.	.	.	.	.	8qg/	.	.
.	.	8d/J	.	.	8f/J	.	.
!	!	!	!	!	!	!	!LO:HP:b
4E/	4AA\	4c#X/)	4A\	.	(>2e/	-ła	<
4r	4ryy	4r	4ryy	.	.	.	[[
=21	=21	=21	=21	=21	=21	=21	=21
4.E/	2C\	4.gn/	8B-X\L	.	4g,>/)	O!	.
.	.	.	8c\	.	.	.	.
.	.	.	8B-\	.	8g/	nie-	.
8F/	.	8f/	8A\J	.	8f/	-od-	.
2G/	2C\	4f/	8B-\L	.	4f/	-wra-	.
.	.	.	8c\	.	.	.	.
.	.	4e/	8B-\	.	4e/	-caj	.
.	.	.	8c\J	.	.	.	.
!!LO:LB:g=original
=22	=22	=22	=22	=22	=22	=22	=22
4.G/	2C\	4b-/	8e\L	.	4b-\	wszech-	.
.	.	.	8c\J	.	.	.	.
.	.	8b-/L	4e\	.	8b-\	-moc-	.
8A/	.	8a/J	.	.	8a\	-nej	.
2B-/	2C\	4a/	8e\L	.	4a/	rę-	.
.	.	.	8c\	.	.	.	.
.	.	4g/	8e\	.	4g/	-ki,	.
.	.	.	8c\J	.	.	.	.
=23	=23	=23	=23	=23	=23	=23	=23
4.F/	2C\	4a-X/	8c\L	.	4a-X/	Bądź	.
.	.	.	8A-X\J	.	.	.	.
.	.	8a-/L	4c\	.	8a-/	wspar-	.
8B-/	.	8g/J	.	.	8g/	-ciem	.
2C/	2C\	4g/	8B-\L	.	4g/	na-	.
.	.	.	8c\	.	.	.	.
.	.	4f/	8A-\	.	4f/	-szem	.
.	.	.	8c\J	.	.	.	.
=24	=24	=24	=24	=24	=24	=24	=24
*	*	*	*^	*	*	*	*
!	!	!	!	!	!	!	!	!LO:HP:a:Bi:t=molto cresc&colon;
2F/	4C\	4a-X/	4ryy	8c\L	.	4a-X/	w Każ-	<
.	.	.	.	8A-X\	.	.	.	.
!	!	!	!	!	!LO:HP:b=2	!	!	!
.	4D-X\	8b-/L	4f/	8B-\	<	8b-/	-dej	.
.	.	8bn/J	.	8Bn\J	.	8bn/	po-	.
8G/L	2C\	2cc/	8e/L	2c\	.	4cc\	-trze-	.
8A-X 8F/	.	.	8a-X 8f/	.	.	.	.	.
8An 8F#X/	.	.	8an 8f#X/	.	.	4cc\	-bie,	.
8B-J 8G/	.	.	8b-XJ 8g/	.	[	.	.	.
!!LO:LB:g=original
=25	=25	=25	=25	=25	=25	=25	=25	=25
*Xtuplet	*	*	*	*	*	*	*	*
*ped	*	*	*	*	*	*	*	*
!LO:TX:a:t=P:znak pedalizacji przed nutą:problem	!	!	!	!	!	!	!	!
!	!	!	!	!	!LO:DY:b:rj	!	!	!LO:DY:b:rj
!LO:N:vis=3	!	!	!	!	!	!	!	!
(>12FF\L	2FF\	(>4cc/	2a 2f/	4c\	f	4cc\	Nie-	f
12C\	.	.	.	.	.	.	.	.
12F\	.	.	.	.	.	.	.	.
12A\	.	8.ee/L	.	8.e\L	.	8.ee\	-chaj	.
12F\)	.	.	.	.	.	.	.	.
*Xped	*	*	*	*	*	*	*	*
12C\J	.	.	.	.	.	.	.	.
.	.	16dd/Jk	.	16d\Jk	.	16dd\	sie-	.
*ped	*	*	*	*	*	*	*	*
!LO:N:vis=3	!	!	!	!	!	!	!	!
(>12CC\L	2CC\	4.cc/	2e/	4.c\	.	4.cc\	-ro-	.
12C\	.	.	.	.	.	.	.	.
12E\	.	.	.	.	.	.	.	.
12G\	.	.	.	.	.	.	.	.
12E\)	.	.	.	.	.	.	.	.
.	.	8b-/)	.	8B-\	.	8b-\	-cej	.
*Xped	*	*	*	*	*	*	*	*
12C\J	.	.	.	.	.	.	.	.
=26	=26	=26	=26	=26	=26	=26	=26	=26
*ped	*	*	*	*	*	*	*	*
!LO:N:vis=3	!	!	!	!	!	!	!	!
(>12DD\L	2DD\	(>4a/	1f 1d	4A\	.	4a/	mo-	.
12AA\	.	.	.	.	.	.	.	.
12D\	.	.	.	.	.	.	.	.
12F\	.	8.cc/L	.	8.c\L	.	8.cc\	-dlit-	.
12D\	.	.	.	.	.	.	.	.
*Xped	*	*	*	*	*	*	*	*
12AA\J)	.	.	.	.	.	.	.	.
.	.	16b-/Jk	.	16B-\Jk	.	16b-\	-wy	.
*ped	*	*	*	*	*	*	*	*
!LO:N:vis=3	!	!	!	!	!	!	!	!
(>12AAA\L	2AAA\	4.a/	.	2c#X 2A\	.	4.a/	dzwię-	.
12AA\	.	.	.	.	.	.	.	.
12C#X\	.	.	.	.	.	.	.	.
12E\	.	.	.	.	.	.	.	.
12C#\)	.	.	.	.	.	.	.	.
.	.	8g/)	.	.	.	8g/	-ki	.
*Xped	*	*	*	*	*	*	*	*
12AA\J	.	.	.	.	.	.	.	.
*tuplet	*	*	*	*	*	*	*	*
*v	*v	*	*	*	*	*	*	*
*	*	*v	*v	*	*	*	*
*	*v	*v	*	*	*	*
=27	=27	=27	=27	=27	=27
*Xtuplet	*Xtuplet	*	*	*	*
4D 4DD/	12r	.	4f/	Doj-	.
.	12fL 12d 12A/	.	.	.	.
.	12fJ 12d 12A/	.	.	.	.
!	!LO:TX:a:Bi:t=stringendo	!	!LO:TX:a:Bi:t=stringendo	!	!
!	!	!	!	!	!LO:HP:b
4BB- 4BBB-/	12r	.	8.g/	-dą	<
.	12gL 12d 12G/	<	.	.	.
.	12g#XJ 12d 12G#X/	.	.	.	.
.	.	.	16g#X/	w Nie-	.
2AA 2AAA/	12r	.	4a/	-bio-	[[
.	12aL 12c 12A/	.	.	.	.
.	12aJ 12d 12Bn/	.	.	.	.
.	12aL 12e 12c/	.	8.a/	-sach	.
.	12a 12d 12B/	[	.	.	.
.	12aJ 12e 12c/	.	.	.	.
.	.	.	16a/	w Nie-	.
!!LO:PB:g=original
=28	=28	=28	=28	=28	=28
4F 4FF/	12r	.	4a/	-bio-	.
.	12aL 12f 12c 12A/	.	.	.	.
.	12aJ 12f 12c 12A/	.	.	.	.
!	!	!	!	!	!LO:HP:b
4D-X 4DD-X/	12r	<	8.b-/	-sach	<
!LO:TX:b:Bi:t=poco rit&colon;	!	!	!	!	!
.	12b-L 12f 12B-/	.	.	.	.
.	12bnJ 12f 12Bn/	.	.	.	.
!	!	!	!LO:TX:a:Bi:t=poco rit&colon;	!	!
.	.	.	16bn/	do	.
4C 4CC/	12r	.	4cc\	Cie-	.
.	12ccL 12e 12c/	.	.	.	.
.	12ccJ 12f 12d 12c/	.	.	.	.
12GL 12E 12C^>\	12ccL 12g 12e 12c^</	.	4cc\	-bie	.
12A 12F 12C^>\	12cc 12a 12f 12c^</	.	.	.	.
12B-XJ 12G 12C^>\	12ccJ 12b-X 12g 12c^</	.	.	.	.
=29	=29	=29	=29	=29	=29
*^	*	*	*	*	*
*	*	*^	*	*	*	*
*	*	*	*^	*	*	*	*
*ped	*	*	*	*	*	*	*	*
!LO:TX:a:t=P:znak pedalizacji przed nutą:problem	!	!	!	!	!	!	!	!
!	!	!LO:TX:b:Bi:t=a tempo	!	!	!	!LO:TX:a:Bi:t=a tempo e grandioso	!	!
!	!	!	!	!	!LO:DY:b:rj	!	!	!LO:DY:b:rj
12FFL 12FFF\	4ryy	4cc/	4a 4f/	4c\	ff	4cc\	Nie-	ff
12A 12F 12C\	.	.	.	.	.	.	.	.
*Xped	*	*	*	*	*	*	*	*
12AJ 12F 12C\	.	.	.	.	.	.	.	.
*ped	*	*	*	*	*	*	*	*
12FF\L	4ryy	8.ee/L	4ryy	8.g#XL 8.e\	.	8.ee\	-chaj	.
12G#X 12D 12BBn\	.	.	.	.	.	.	.	.
*Xped	*	*	*	*	*	*	*	*
12G#J 12D 12BB\	.	.	.	.	.	.	.	.
.	.	16dd/Jk	.	16g#Jk 16f 16d\	.	16dd\	sie-	.
*ped	*	*	*	*	*	*	*	*
!LO:N:vis=3	!	!	!	!	!	!	!	!
(>12CC\L	2CC\	(>4.cc/	2e/	4.c\	.	(>4.cc\	-ro-	.
12C\	.	.	.	.	.	.	.	.
12E\	.	.	.	.	.	.	.	.
12Gn\	.	.	.	.	.	.	.	.
12E\)	.	.	.	.	.	.	.	.
.	.	8b-/)	.	8B-\	.	8b-X\)	-cej	.
*Xped	*	*	*	*	*	*	*	*
12C\J	.	.	.	.	.	.	.	.
!!LO:LB:g=original
=30	=30	=30	=30	=30	=30	=30	=30	=30
*ped	*	*	*	*	*	*	*	*
!LO:TX:a:t=P:znak pedalizacji przed nutą:problem	!	!	!	!	!	!	!	!
12DDL 12DDD\	4ryy	4a/	2f 2d/	4A\	.	4a/	mo-	.
12F 12D 12AA\	.	.	.	.	.	.	.	.
12FJ 12D 12AA\	.	.	.	.	.	.	.	.
12DD\L	4ryy	8.cc/L	.	8.c\L	.	8.cc\	-dli-	.
12F 12D 12AA\	.	.	.	.	.	.	.	.
12FJ 12D 12AA\	.	.	.	.	.	.	.	.
*Xped	*	*	*	*	*	*	*	*
.	.	16b-/Jk	.	16B-\Jk	.	16b-\	-twy	.
*ped	*	*	*	*	*	*	*	*
!LO:TX:a:t=P:znak pedalizacji przed nutą:problem	!	!	!	!	!	!	!	!
!LO:N:vis=3	!	!	!	!	!	!	!	!
(>12AAA\L	2AAA\	(>4.a/	2ryy	2c#X 2A\	.	(>4.a/	dzwię-	.
12AA\	.	.	.	.	.	.	.	.
12C#X\	.	.	.	.	.	.	.	.
12E\)	.	.	.	.	.	.	.	.
12C#\	.	.	.	.	.	.	.	.
.	.	8g/)	.	.	.	8g/)	-ki	.
*Xped	*	*	*	*	*	*	*	*
12AA\J	.	.	.	.	.	.	.	.
*v	*v	*	*	*	*	*	*	*
=31	=31	=31	=31	=31	=31	=31	=31
6D 6DD/	12r	12ryy	12ryy	.	4f/	Doj-	.
.	6f/	6A\	12d/L	.	.	.	.
12C 12CC/	.	.	12e-X/J	.	.	.	.
4BB- 4BBB-/	12r	12ryy	4ryy	.	8b-\	-dą	.
!	!	!LO:TX:a:t=P:problem:mixed beam	!	!	!	!	!
.	6f 6d/	12B-\L	.	.	.	.	.
.	.	.	.	.	8dd\	w Nie-	.
.	.	12F</J	.	.	.	.	.
4C 4CC/	12r	2ryy	2ryy	.	(>4cc\	-bio-	.
.	12fL 12c 12A/	.	.	.	.	.	.
.	12fJ 12c 12A/	.	.	.	.	.	.
6D 6DD/	12r	.	.	.	8f/)	-sach	.
.	12fL 12B-/	.	.	.	.	.	.
.	.	.	.	.	8g/	do	.
12D-X 12DD-X/	12gJ 12f 12Bn/	.	.	.	.	.	.
!!LO:LB:g=original
*	*	*v	*v	*	*	*	*
=32	=32	=32	=32	=32	=32	=32
*^	*	*	*	*	*	*
*	*	*	*	*	*Xtuplet	*	*
[>2C/	2CC\	4a 4f/	12c\L	.	4a/	Cie-	.
!	!	!	!	!LO:HP:a	!	!	!
.	.	.	12d\	>	.	.	.
.	.	.	12c\J	.	.	.	.
!	!	!	!	!	!LO:TX:b:Bi:t=rit&colon;:rj	!	!
.	.	4g 4e/	12B-\L	.	12g/L	.	.
.	.	.	.	.	8qb-/	.	.
.	.	.	12c\	.	12a/	.	.
.	.	.	12B-\J	.	12g/J	.	.
12C/L]	4FF\	4f/	4A\	] <	4f/	-bie.	.
12D/	.	.	.	.	.	.	.
12C/J	.	.	.	.	.	.	.
12D/L	4r	4r	4r	.	4r	.	.
12C/	.	.	.	.	.	.	.
12D/J	.	.	.	[	.	.	.
*	*	*	*	*	*tuplet	*	*
=33	=33	=33	=33	=33	=33	=33	=33
*	*	*	*^	*	*	*	*
*	*	*tuplet	*	*	*	*	*	*
!	!	!LO:TUP:a	!	!	!	!	!	!
!	!	!	!	!	!LO:DY:b:rj	!	!	!
2E-X/	2FF\	(>12a/L	2A\	4ryy	f	1r	.	.
.	.	12g/	.	.	.	.	.	.
.	.	12f/J	.	.	.	.	.	.
*	*	*Xtuplet	*	*	*	*	*	*
.	.	8qg/	.	.	.	.	.	.
.	.	12f/L	.	4ryy	.	.	.	.
.	.	12en/	.	.	.	.	.	.
.	.	N[<12f/J	.	.	.	.	.	.
12D/L	2FF\	[>4b-/	2f/N]	[<4B-\	.	.	.	.
12F/	.	.	.	.	.	.	.	.
12E-/J	.	.	.	.	.	.	.	.
12D/L	.	12b-/L]	.	12B-\L]	.	.	.	.
12C/	.	12cc/	.	12c\	.	.	.	.
12BB-/J	.	12dd/J)	.	12d\J	.	.	.	.
=34	=34	=34	=34	=34	=34	=34	=34	=34
12AA/L	2FF\	(12ee-X/L	2f/	12e-X\L	.	1r	.	.
12BB-/	.	12dd/	.	12d\	.	.	.	.
12C/J	.	[>12cc/J	.	[<12c\J	.	.	.	.
12E-X/L	.	12cc/L]	.	12c\L]	.	.	.	.
12D/	.	12b-/	.	12B-\	.	.	.	.
12C/J	.	12a/J	.	12A\J	.	.	.	.
12D/L	2FF\	12b-/L	2B-\	2ryy	.	.	.	.
12BB-/	.	12d/	.	.	.	.	.	.
12C/J	.	12en/J	.	.	.	.	.	.
12C#X/L	.	12en/L	.	.	.	.	.	.
12E-/	.	12g/	.	.	.	.	.	.
12D/J	.	12f/J)	.	.	.	.	.	.
!!LO:LB:g=original
=35	=35	=35	=35	=35	=35	=35	=35	=35
2E-X/	2FF\	12a/L	2A\	4ryy	.	1r	.	.
.	.	(>12g/	.	.	.	.	.	.
.	.	12f/J	.	.	.	.	.	.
.	.	8qg/	.	.	.	.	.	.
.	.	12f/L	.	4ryy	.	.	.	.
.	.	12en/	.	.	.	.	.	.
.	.	N[<12f/J	.	.	.	.	.	.
12D-X/L	2FF\	[>4b-/	2f/N]	[<4B-\	.	.	.	.
12F/	.	.	.	.	.	.	.	.
12E-/J	.	.	.	.	.	.	.	.
12D-/L	.	12b-/L]	.	12B-\L]	.	.	.	.
12C/	.	12cc/)	.	12c\	.	.	.	.
12BB-/J	.	12dd-X/J	.	12d-X\J	.	.	.	.
=36	=36	=36	=36	=36	=36	=36	=36	=36
12BB-/L	4FF\	(>12dd-X/L	4f/	12e-X\L	.	1r	.	.
12C/	.	12cc/	.	12d\	.	.	.	.
!	!	!LO:TX:a:Bi:t=ri_tar_dan_do:dur=4e:ext=ud:problem:text with extention lines	!	!	!	!	!	!
12D-X/J	.	12b-/J	.	12B-\J	.	.	.	.
4En 4D-/	4FF\	12b-/L	4d-X 4B-\	4ryy	>	.	.	.
.	.	12a/	.	.	.	.	.	.
.	.	12g/J	.	.	.	.	.	.
2F/	2FF\	2f/	12cL 12A\	2ryy	]	.	.	.
.	.	.	12Bn 12G#X\	.	.	.	.	.
.	.	.	12cJ 12A\	.	.	.	.	.
.	.	.	12e-L 12c\	.	.	.	.	.
.	.	.	12B-X 12Gn\	.	.	.	.	.
.	.	.	12cJ 12A\)	.	.	.	.	.
!!LO:PB:g=original
*v	*v	*	*	*	*	*	*	*
*	*	*v	*v	*	*	*	*
*	*v	*v	*	*	*	*
=37||	=37||	=37||	=37||	=37||	=37||
*k[b-e-]	*k[b-e-]	*	*k[b-e-]	*	*
!	!	!	!LO:TX:a:Bi:t=dolce	!	!
!	!	!LO:DY:b:rj	!	!	!
2BB- 2BBB-/	(>12d/L	p	4f/	Pa-	.
.	12B-</	.	.	.	.
.	12F</	.	.	.	.
.	12B-</	.	8.d/	-nie!	.
.	12F</)	.	.	.	.
.	12D</J	.	.	.	.
.	.	.	16f/	o	.
2BB- 2BBB-/	(>12d/L	.	(>4b-\	Pa-	.
.	12B-</	.	.	.	.
.	12F#X</	.	.	.	.
.	12B-</	.	4f#X/)	-nie	.
.	12F#</)	.	.	.	.
.	12D</J	.	.	.	.
=38	=38	=38	=38	=38	=38
2BB- 2BBB-/	(>12d/L	.	4g/	my	.
.	12B-</	.	.	.	.
.	12F</	.	.	.	.
.	12B-</	.	8.b-\	Two-	.
.	12F-X</)	.	.	.	.
.	12D</J	.	.	.	.
.	.	.	16cc\	-i	.
!	!	!	!	!	!LO:HP:b
4BB- 4BBB-/	(>12d/L	.	4dd\	wier-	<
.	12B-</	.	.	.	.
.	12F-</	.	.	.	.
4AAn 4AAAn/	12B-</	<	4dd\	-ni,	.
.	12F-</	.	.	.	.
.	12D</J)	.	.	.	.
=39	=39	=39	=39	=39	=39
4AA-X 4AAA-X/	(>12d/L	.	4dd\	Nie-	.
.	12B-</	.	.	.	.
.	12F</J)	.	.	.	.
4GG 4GGG/	(>12d/L	[	8.dd\	-do-	.
.	12Bn</	.	.	.	.
.	12F</J)	.	.	.	.
.	.	.	16dd\	-lę	[
2C 2CC/	12r	.	4dd\	zno-	.
.	(>12En</L	.	.	.	.
.	&(<12B-X</J	.	.	.	.
.	12en/L	.	8cc\	-sząc	.
.	12c/	.	.	.	.
.	.	.	8b-\	w po-	.
.	12g/J&))	.	.	.	.
!!LO:LB:g=original
=40	=40	=40	=40	=40	=40
!	!	!	!	!	!LO:HP:b
2GG-X 2GGG-X/	12r	.	(>2b-\	-ko-	>
.	(<12B-/L	>	.	.	.
.	12c/J	.	.	.	.
.	12e-X/L	.	.	.	.
.	12c/	.	.	.	.
.	12en/J)	.	.	.	.
2FF 2FFF/	12r	]	4a/)	-rze,	]
.	(<12A/L	.	.	.	.
.	12c/J	.	.	.	.
.	12f/L	.	4r	.	.
.	12A/	.	.	.	.
.	12c/J)	.	.	.	.
=41	=41	=41	=41	=41	=41
!	!	!	!LO:TX:a:Bi:t=con dolore	!	!
!	!	!	!	!	!LO:DY:b:rj
2F 2FF/	12r	.	4a-X/	W ża-	pp
.	(<12Bn/L	.	.	.	.
.	12d/J	.	.	.	.
.	12a-X/L	.	8.a-/	-ło-	.
.	12d/)	.	.	.	.
.	12B/J	.	.	.	.
.	.	.	16a-/	-bnej	.
2En 2EEn/	12r	.	(<4a-/	sza-	.
.	(<12B-X/L	.	.	.	.
.	12d-X/J	.	.	.	.
.	12g/L	.	4g/)	-cie,	.
.	12d-/)	.	.	.	.
.	12B-/J	.	.	.	.
=42	=42	=42	=42	=42	=42
2E-X 2EE-X/	12r	.	4g-X/	w Ko-	.
.	(<12A/L	.	.	.	.
.	12c/J	.	.	.	.
.	12g-X/L	.	8.g-/	-ro-	.
.	12c/	.	.	.	.
.	12A/J)	.	.	.	.
.	.	.	16g-/	-nie	.
2D 2DD/	12r	.	(<4g-/	z cier-	.
.	(<12B-/L	.	.	.	.
.	12dn/J	.	.	.	.
.	12f/L	.	4f/)	-ni	.
.	12B-/)	.	.	.	.
.	12d/J	.	.	.	.
!!LO:LB:g=original
=43	=43	=43	=43	=43	=43
*ped	*	*	*	*	*
!LO:TX:a:t=P:znak pedalizacji przed nutą:problem	!	!	!	!	!
(<12BBB-/L	(>4f 4d-X 4B- 4F/	.	4f/	Wo-	.
12FF/	.	.	.	.	.
12BB-/J)	.	.	.	.	.
!	!	!	!LO:TUP:a:problem:brak klamry	!	!
(>12D\L	6b- 6f 6d- 6B-/	<	6b-\	-ła-	.
12BB-\	.	.	.	.	.
*Xped	*	*	*	*	*
12FF\J)	12dd 12b- 12f 12d-/	.	12dd\	-my:	.
*	*	*	*Xtuplet	*	*
*ped	*	*	*	*	*
!LO:TX:a:t=P:problem:mixed beam	!	!	!	!	!
12EE-L 12EEE-/	6ff 6dd 6bn 6a-X 6f/	.	6ff\	Zmi-	.
(>12E-\	.	[	.	.	.
12G\J	12ee- 12cc 12g 12e-/	.	12ee-\	-łuj	.
12Bn\L	6dd 6a-X 6f/	.	6dd\	się	.
12E-\	.	.	.	.	.
*Xped	*	*	*	*	*
12c\J)	12cc 12g 12e-/)	>	12cc\	o	.
*	*	*	*tuplet	*	*
=44	=44	=44	=44	=44	=44
*^	*	*	*	*	*
*	*	*^	*	*	*	*
*	*	*	*^	*	*	*	*
!	!	!	!	!	!	!	!	!LO:HP:b
12FF\L	4ryy	(>4b- 4f 4d/	4ryy	4ryy	.	(>4b-\	Bo-	>
12F\	.	.	.	.	.	.	.	.
12B-XJ 12D\	.	.	.	.	]	.	.	.
12FF\L	4ryy	8cc/L	4a 4f/	8c\L	.	8cc\L	.	.
12F\	.	.	.	.	.	.	.	.
.	.	8cc#X/J	.	8c#X\J	.	8cc#X\J	.	]
12AJ 12F\	.	.	.	.	.	.	.	.
12BB-/L	2BB-\	2dd 2b-/)	2ryy	2f 2d\	.	2dd\)	-że!	.
(>12F/	.	.	.	.	.	.	.	.
12B-/J	.	.	.	.	.	.	.	.
12F/L	.	.	.	.	.	.	.	.
12D/	.	.	.	.	.	.	.	.
12BB-/J)	.	.	.	.	.	.	.	.
*v	*v	*	*	*	*	*	*	*
*	*	*v	*v	*	*	*	*
*	*v	*v	*	*	*	*
=45	=45	=45	=45	=45	=45
2GG 2GGG/	12r	.	4g/	Niech	.
.	(<12G/L	.	.	.	.
.	12Bn/J	.	.	.	.
.	12f/L	.	8a-X/	nam	.
.	12B/)	.	.	.	.
!	!	!	!LO:TX:b:Bi:t=cre_scen_do:problem:dynamics with extention lines	!	!
!	!	!	!	!	!LO:HP:b:Bi:t=cre_scen_do:ext=ud
.	.	.	8g/	na-	<
!	!LO:TX:b:Bi:t=cre_scen_do:problem:dynamics with extention lines	!	!	!	!
!	!	!LO:HP:b:Bi:t=cre_scen_do:ext=ud	!	!	!
.	12G/J	<	.	.	.
2GG 2GGG/	12r	.	(>4g/	-dzie-	.
.	(<12G/L	.	.	.	.
.	12c/J	.	.	.	.
.	12e-/L	.	4cc\)	-i	.
.	12c/)	.	.	.	.
.	12G/J	.	.	.	.
!!LO:LB:g=original
=46	=46	=46	=46	=46	=46
*	*^	*	*	*	*
4GG 4GGG/	12r	4ryy	.	4bn\	pro-	.
.	(>12G/L	.	.	.	.	.
.	12Bn/J	.	.	.	.	.
6AA 6AAA/	4f/	12c\L	.	8cc\	-mień	.
.	.	12G\	.	.	.	.
.	.	.	.	8dd\	za-	.
12BBn 12BBBn/	.	12d\J)	.	.	.	.
2C 2CC/	12r	2ryy	[[	(>4ee-\	-świe-	[[
.	(<12G/L	.	.	.	.	.
.	12c/J	.	.	.	.	.
.	12e-/L	.	.	4cc\)	-ci	.
.	12c/	.	.	.	.	.
.	12G/J)	.	.	.	.	.
*	*v	*v	*	*	*	*
=47	=47	=47	=47	=47	=47
*^	*	*	*	*	*
*	*	*^	*	*	*	*
!	!	!	!	!LO:DY:b:rj	!	!	!LO:DY:b:rj
(<12FFL 12FFF/	4ryy	2f 2d-X 2A-X/	2ryy	f	4dd-X\	Po	f
12AAA-X/	.	.	.	.	.	.	.
12DD-X/J	.	.	.	.	.	.	.
12FF/L	4ryy	.	.	.	(<8a-X/	bu-	.
12AA-X/	.	.	.	.	.	.	.
.	.	.	.	.	8f/)	-rzy	.
12D-X/J)	.	.	.	.	.	.	.
!	!	!	!	!LO:HP:b=2	!	!	!
(>12FF\L	2D-/	2d-/	(>12d-X\L	<	2d-X/	dniach	.
12GG-X\	.	.	12e-X\	.	.	.	.
12GGn\	.	.	12en\	[[	.	.	.
!	!	!	!	!LO:HP:b=2	!	!	!
12AA-X\	.	.	12f\	>	.	.	.
12GG\	.	.	12e\	.	.	.	.
12GG-X\J)	.	.	12e-X\J)	]]	.	.	.
!!LO:PB:g=original
=48	=48	=48	=48	=48	=48	=48	=48
*	*	*tuplet	*	*	*	*	*
!	!	!LO:TX:a:Bi:t=Lento.	!	!	!LO:TX:a:Bi:t=Lento e tranquillo.	!	!
!	!	!	!	!	!LO:TX:b:Bi:t=dolciſsimo.	!	!
!	!	!LO:TUP:a	!	!	!LO:TUP:a:problem:brak klamry	!	!
!	!	!	!	!LO:DY:b:rj	!	!	!
4F/	4FF\	12a-X/L	[<4d-X\	pp	6a-X/	dzień	.
.	.	12f/	.	.	.	.	.
.	.	12dd-X/J	.	.	12a-/	po-	.
!	!	!LO:TUP:a:problem:brak klamry	!	!	!LO:TUP:a:problem:klamra łukowa	!	!
4G-X/	4GG-X\	6cc 6a-X/	12d-\]	.	6cc\	-go-	.
.	.	.	6d-\	.	.	.	.
.	.	12b- 12g-X/	.	.	12b-\	.	.
*	*	*Xtuplet	*	*	*	*	*
*ped	*	*	*	*	*	*	*
2A-X/	4AA-X\	(<12a-L 12c/	2ryy	.	4a-/	-dy	.
.	.	12ff 12a-/	.	.	.	.	.
.	.	12ee-J 12g-X/)	.	.	.	.	.
*Xped	*	*	*	*	*	*	*
.	4D\	(<12dd-L 12f/	.	.	4r	.	.
.	.	12a- 12e-/	.	.	.	.	.
.	.	12fJ 12d-/)	.	.	.	.	.
*v	*v	*	*	*	*	*	*
=49	=49	=49	=49	=49	=49	=49
*	*tuplet	*	*	*Xtuplet	*	*
!	!LO:TUP:b:problem:klamra łukowa	!	!	!	!	!
4B-X 4BB-X\	12d-X/L	4d-\	<	6f/	dzień	<
.	12f/	.	.	.	.	.
.	12b-/J	.	[[	12b-\	po-	.
*	*	*	*	*tuplet	*	*
!	!LO:TUP:a:problem:klamra łukowa	!	!	!LO:TUP:a:problem:klamra łukowa	!	!
4E-X 4EE-X/	12b-L 12g/	4B-\	>	12b-\L	-go-	[ >
.	12a-X 12f/	.	>	12a-X\	.	>
.	12g-XJ 12e-/	.	.	12g-X\J	.	.
*	*Xtuplet	*	*	*	*	*
4F 4FF/	12fL 12An/	2ryy	]	4f/	-dy	]]
.	12f 12F</	.	<	.	.	.
.	12fJ 12F</	.	.	.	.	.
4rGG	12fL 12F</	.	.	4r	.	.
.	12f 12F</	.	.	.	.	.
.	12fJ 12F</	.	[	.	.	.
!!LO:LB:g=original
*	*v	*v	*	*	*	*
=50	=50	=50	=50	=50	=50
!	!	!	!LO:TX:a:Bi:t=a tempo.	!	!
!	!	!LO:DY:b:rj	!	!	!LO:DY:b:rj
2FF 2FFF/	12r	f	4g/	W I-	f
!	!LO:TX:a:Bi:t=a tempo	!	!	!	!
.	(<12F</L	.	.	.	.
.	12A</J	.	.	.	.
.	12fL 12e-/	.	8.f/	-mie	.
.	12A</	.	.	.	.
.	12F</J)	.	.	.	.
.	.	.	16dd\	bra-	.
2FF 2FFF/	12r	.	4dd^>\	-ter-	.
.	(<12F</L	.	.	.	.
.	12A</J	.	.	.	.
.	12fL 12e-/	.	4cc\	-stwa	.
.	12A</)	.	.	.	.
.	12F</J	.	.	.	.
=51	=51	=51	=51	=51	=51
2FF 2FFF/	12r	.	4g/	po-	.
.	(<12F</L	.	.	.	.
.	12B-</Jyy	.	.	.	.
.	12fL 12d/	.	8.f/	-łącz	.
.	12B-</)	.	.	.	.
.	12F</J	.	.	.	.
.	.	.	16cc\	Twe	.
2FF 2FFF/	12r	.	4cc\	dzie-	.
.	(<12F</L	.	.	.	.
.	12B-</J	.	.	.	.
.	12fL 12d/	.	4b-\	-ci	.
.	12B-</)	.	.	.	.
.	12F</J	.	.	.	.
!!LO:LB:g=original
=52	=52	=52	=52	=52	=52
2FF 2FFF/	12r	.	(>4a/	Wę-	.
.	(<12F</L	.	.	.	.
.	12A</J	.	.	.	.
.	12e-/L	.	8g/	-złem	.
.	12A</)	.	.	.	.
.	.	.	8f/	je-	.
.	12F</J	.	.	.	.
!	!	!LO:HP:a	!	!	!LO:HP:b
2FF 2FFF/	12r	>	4e-/	-dno-	>
.	(<12F</L	.	.	.	.
.	12A</J	.	.	.	.
.	12Bn<L 12G#X</	.	8d/	-ści	]
.	12F</	.	.	.	.
.	.	.	8e-/)	i	.
.	12c<J 12A</)	]	.	.	.
=53	=53	=53	=53	=53	=53
2BB- 2BBB-/	12r	.	(<2g^>/	zgo-	.
.	12G</L	.	.	.	.
.	12B-</J	.	.	.	.
.	12e-/L	.	.	.	.
.	12B-</	.	.	.	.
.	12G</J	.	.	.	.
2BB-\	12d/L	.	4f/)	-dy!	.
.	(>12B-</	.	.	.	.
.	12F</J	.	.	.	.
.	12f/L	.	4r	.	.
.	12d/	.	.	.	.
.	12B-/J)	.	.	.	.
!!LO:LB:g=original
=54	=54	=54	=54	=54	=54
*^	*	*	*	*	*
*	*	*^	*	*	*	*
*ped	*	*	*	*	*	*	*
!LO:TX:a:t=P:problem:znak pedalizacji przed nutą	!	!	!	!	!	!	!
!	!	!	!	!LO:DY:b:rj	!	!	!LO:DY:b:rj
!LO:N:vis=3	!	!	!	!	!	!	!
(>12FF\L	2FF\	(>4g/	2e- 2A\	f	4g/	W I-	f
12C\	.	.	.	.	.	.	.
12E-\	.	.	.	.	.	.	.
12F\	.	4f/	.	.	8.f/	-mie	.
12E-\	.	.	.	.	.	.	.
*Xped	*	*	*	*	*	*	*
12C\J)	.	.	.	.	.	.	.
.	.	.	.	.	16dd\	bra-	.
*ped	*	*	*	*	*	*	*
!LO:TX:a:t=P:problem:znak pedalizacji przed nutą	!	!	!	!	!	!	!
!LO:N:vis=3	!	!	!	!	!	!	!
(>12FF#X\L	2FF#X\	4dd/	2a 2e-\	.	4dd^>\	-ter-	.
12C\	.	.	.	.	.	.	.
12E-\	.	.	.	.	.	.	.
12A\	.	4cc/)	.	.	4cc\	-stwa	.
12E-\)	.	.	.	.	.	.	.
*Xped	*	*	*	*	*	*	*
12C\J	.	.	.	.	.	.	.
=55	=55	=55	=55	=55	=55	=55	=55
!LO:N:vis=3	!	!	!	!	!	!	!
(>12GG\L	2GG\	(>4e-/	2B-\	.	4e-/	po-	.
12BB-\	.	.	.	.	.	.	.
12D\	.	.	.	.	.	.	.
12G\	.	4d/	.	.	8d/	-łącz	.
12D\	.	.	.	.	.	.	.
.	.	.	.	.	8b-\	Twe	.
12BB-\J)	.	.	.	.	.	.	.
*ped	*	*	*	*	*	*	*
!LO:TX:a:t=P:problem:znak pedalizacji przed nutą	!	!	!	!	!	!	!
!LO:N:vis=3	!	!	!	!	!	!	!
(>12EEn\L	2EEn\	4a/	2c#X 2B-\	.	(<4a/	dzie-	.
12BB-\	.	.	.	.	.	.	.
12C#X\	.	.	.	.	.	.	.
12G\	.	4g/)	.	.	4g/)	-ci	.
12C#\	.	.	.	.	.	.	.
*Xped	*	*	*	*	*	*	*
12BB-\J)	.	.	.	.	.	.	.
!!LO:PB:g=original
*v	*v	*	*	*	*	*	*
*	*v	*v	*	*	*	*
=56	=56	=56	=56	=56	=56
2F 2D 2BB- 2FF\	2f 2d 2B-/	<	4f/	Wę-	.
!	!	!	!LO:TX:a:Bi:t=marcato	!	!
!	!	!	!	!	!LO:HP:b
.	.	.	8f/	-złem	<
.	.	.	8f/	je-	.
8FL 8D\	8fL 8d/	.	8f/L	-dno-	.
8D 8BB-\	8d 8B-/	.	8d/J	.	.
8F 8D\	8f 8d/	[[	8f/	-ści	.
8B-J 8D\	8b-J 8d/	.	8b-/	i	[
=57	=57	=57	=57	=57	=57
*^	*	*	*	*	*
!	!	!	!	!	!	!LO:HP:b
[4B-/	2F\	4dd 4f 4d/	>	4dd\	zgo-	>
*tuplet	*	*	*	*	*	*
!LO:TUP:a:problem:brak klamry	!	!	!	!LO:TUP:a:problem:brak klamry	!	!
6B-/]	.	4cc 4e- 4c/	.	12cc\L	.	.
.	.	.	.	12g\	.	.
12A/	.	.	]	12a\J	.	.
*Xtuplet	*	*	*	*	*	*
(>8B-/L	4BB-\	4b- 4d/	.	4b-'>\	-dy!	]
8A/	.	.	.	.	.	.
8G/	4r	4r	.	4r	.	.
8F/J)	.	.	.	.	.	.
!!LO:LB:g=original
=58	=58	=58	=58	=58	=58	=58
*	*	*^	*	*	*	*
!	!	!	!	!LO:DY:b:rj	!	!	!LO:DY:b:rj
(>8E-/L	2BB-\	(>8g/L	4.B-\	p	8g/L	Wę-	p
8D/	.	8f/	.	.	8f/J	.	.
8E-/)	.	8g/	.	.	8g/	-złem	.
8C/J	.	8a/J)	8e-\	.	8a/	je-	.
(>8BB-/L	8BB-\L	(>4b-/	4d\	.	(>4b-\	-dno-	.
8AA/	8AA\	.	.	.	.	.	.
8GG/	8GG\	4d/)	4B-\	.	4d/)	-ści	.
8FF/J)	8FF\J	.	.	.	.	.	.
*v	*v	*	*	*	*	*	*
=59	=59	=59	=59	=59	=59	=59
*^	*	*	*	*	*	*
8EE-/L	2ryy	(>8e-L 8c 8G/	4ryy	.	(>8e-/L	i	.
!	!	!LO:TX:b:Bi:t=rit&colon;	!	!	!LO:TX:b:Bi:t=rit&colon;	!	!
8CC/J	.	8gJ 8e- 8c 8B-/	.	.	8g/J)	.	.
4FF/	.	8fL 8d/	4A\	.	4f/	zgo-	.
.	.	8e-J 8c/	.	.	.	.	.
2BB-/	2BBB-\	2d/	&(>8B-\L	.	2f/	-dy.	.
.	.	.	8F<\	.	.	.	.
.	.	.	8B-\	.	.	.	.
.	.	.	8A\J&))	.	.	.	.
*v	*v	*	*	*	*	*	*
=60	=60	=60	=60	=60	=60	=60
!	!LO:TX:a:Bi:t=a tempo	!	!	!	!	!
!	!	!	!LO:DY:b:Bi:t=%s.:rj	!	!	!
2BB- 2BBB-/	8d/L	2A-X\	p	1r	.	.
.	(<8c#X/	.	.	.	.	.
.	8d/	.	.	.	.	.
!	!	!	!LO:HP:a	!	!	!
.	8en/J)	.	<	.	.	.
2AA 2AAA/	8fL 8An/	2ryy	.	.	.	.
.	(<8d 8F</	.	.	.	.	.
.	8g 8B-/	.	.	.	.	.
.	8fJ 8A/)	.	[[	.	.	.
!!LO:LB:g=original
*	*v	*v	*	*	*	*
=61	=61	=61	=61	=61	=61
*^	*	*	*	*	*
8G/L	2AA\	8en/L	.	1r	.	.
!	!	!	!LO:HP:a	!	!	!
8En/J	.	8Bn/J	>	.	.	.
8A/L	.	4c#X/	.	.	.	.
8G/J	.	.	.	.	.	.
8D/L	4DD\	4d 4F</	]	.	.	.
(<8BB-/	.	.	.	.	.	.
8AA/)	4r	4r	.	.	.	.
8FF/J	.	.	.	.	.	.
*v	*v	*	*	*	*	*
=62	=62	=62	=62	=62	=62
*	*^	*	*	*	*
!	!	!	!LO:HP:a	!	!	!
4.D 4.DD/	(>8f/L	4.A\	<	1r	.	.
.	8en/	.	.	.	.	.
.	8f/	.	.	.	.	.
8D-X 8DD-X/	8g/J	8Bn\	.	.	.	.
2C 2CC/	8a/L	8c\L	[[	.	.	.
.	8f/	8A\	.	.	.	.
.	8b-/	8d\	.	.	.	.
.	8a/J)	8c\J	.	.	.	.
=63	=63	=63	=63	=63	=63	=63
*^	*	*	*	*	*	*
[>2C\	2ryy	8g/L	8B-\L	.	1r	.	.
!	!	!	!	!LO:HP:a	!	!	!
.	.	8d/J	8G\	>	.	.	.
!	!	!LO:TX:a:Bi:t=poco rit&colon;	!	!	!	!	!
.	.	4en/	8c\	.	.	.	.
.	.	.	8B-\J	.	.	.	.
4C/]	4FF\	(<8fL 8A/	2ryy	.	.	.	.
.	.	8c/	.	.	.	.	.
4r	4ryy	8f 8A/	.	.	.	.	.
.	.	8gJ 8c/)	.	]	.	.	.
*kcancel	*	*kcancel	*	*	*kcancel	*	*
!!LO:LB:g=original
*v	*v	*	*	*	*	*	*
*	*v	*v	*	*	*	*
=64||	=64||	=64||	=64||	=64||	=64||
*	*^	*	*	*	*
*k[b-]	*k[b-]	*	*	*k[b-]	*	*
!	!LO:TX:a:Bi:t=Imo tempo	!	!	!LO:TX:a:Bi:t=Imo tempo.	!	!
!	!	!	!LO:DY:b:rj	!	!	!LO:DY:b:rj
4A 4F\	4a/	4f 4c\	p	4a/	Z mi-	p
2B- 2F\	8.a/L	2e 2d-X\	sf	8.a/	-lio-	.
.	16g/Jk	.	.	16g/	-nów	.
.	4g/	.	.	(<4g/	pier-	.
4A 4F\	4f/	4c\	.	4f/)	-si	.
*	*v	*v	*	*	*	*
=65	=65	=65	=65	=65	=65
!	!	!LO:DY:b:rj	!	!	!LO:DY:b:rj
4F 4C 4AA 4FF^</	4a 4f 4c 4A^>/	f	4a\	głos	f
4E 4C 4GG 4EE^</	4cc 4g 4c^>/	.	8.cc\	je-	.
.	.	.	16cc\	-den	.
2D 2AA 2FF 2DD^</	2ff 2a 2f^>/	.	(>4ff^>\	wzla-	.
.	.	.	4a/)	-ta	.
!!LO:PB:g=original
=66	=66	=66	=66	=66	=66
*	*^	*	*	*	*
4BB- 4BBB-/	4dd 4b- 4f 4d/	4ryy	.	4dd\	Je-	.
4AA 4AAA/	4cc 4f 4c/	4ryy	.	8cc\	-den	.
.	.	.	.	8dd\	Ku	.
4GG 4GGG/	8cc/L	4e 4c\	.	8cc\L	To-	.
.	8b-/J	.	.	8b-\J	.	.
8FFL 8FFF/	8aL 8f 8c/	4ryy	.	8a/	-bie	.
8AAJ 8AAA/	8ccJ 8f 8c/	.	.	8cc\	bła-	.
=67	=67	=67	=67	=67	=67	=67
*^	*	*	*	*	*	*
*	*	*	*^	*	*	*	*
[>2C 2CC/	2ryy	2.g/	4f/	2.c\	.	2g/	-ga-	.
.	.	.	8e/L	.	>	.	.	.
.	.	.	8d/J	.	.	.	.	.
8C/L]	8C\L	.	4e/	.	.	4g/	-nie:	.
8BB-/J	8BB-\J	.	.	.	]	.	.	.
4AA/	4AA\	4a 4f#X 4d/	4ryy	4c\	.	4r	.	.
!!LO:LB:g=original
*	*	*	*v	*v	*	*	*	*
=68	=68	=68	=68	=68	=68	=68	=68
!	!	!	!	!	!LO:TX:a:Bi:t=dolce	!	!
!	!	!	!	!LO:DY:b:rj	!	!	!LO:DY:b:rj
(>8GG/L	(<2GG\	[>4b- [<4g/	2d 2B-\	p	4b-\	Ra-	p
8D/	.	.	.	.	.	.	.
8G/	.	8.b-]L 8.g/]	.	.	8.b-\	-tuj	.
8F/J)	.	.	.	.	.	.	.
.	.	16a/Jk	.	.	16a\	Twe	.
(>8E/L	2C\)	2g/	2c\	.	4g/	dzie-	.
8D/	.	.	.	.	.	.	.
8E/	.	.	.	.	4g/	-ci	.
8C/J)	.	.	.	.	.	.	.
*	*	*v	*v	*	*	*	*
=69	=69	=69	=69	=69	=69	=69
(>8FF/L	(<2FF\	2a 2c 2A/	.	4a/	o	.
8C/	.	.	.	.	.	.
8F/	.	.	.	8.a/	Stwór-	.
8E/J)	.	.	.	.	.	.
.	.	.	.	16g/	-co	.
(>8D/L	2BB-\)	2f 2B-/	.	4f/	świa-	.
8C/	.	.	.	.	.	.
8D/	.	.	.	4f/	-ta	.
8BB-/J)	.	.	.	.	.	.
!!LO:LB:g=original
=70	=70	=70	=70	=70	=70	=70
*	*	*^	*	*	*	*
(>8EEn/L	(<2EE\	2g 2B- 2G/	2ryy	.	4g/	Po-	.
8BB-/	.	.	.	.	.	.	.
8E/	.	.	.	.	8.g/	-wroć	.
8D/J)	.	.	.	.	.	.	.
.	.	.	.	.	16f/	nam	.
(>8C#X/L	2AA\)	(>4e/	2A\	.	4e/	szczę-	.
8G/	.	.	.	.	.	.	.
8F/	.	8d/L	.	.	8d/	-ście	.
8C#/J)	.	8e/J)	.	.	8e/	o	.
=71	=71	=71	=71	=71	=71	=71	=71
2D/	4D\	(>4f/	8d\L	.	4f/	Pa-	.
.	.	.	8A\J	.	.	.	.
.	4BB-\	8e/L	4G#X\	.	8e/L	.	.
.	.	.	.	.	8qg/	.	.
.	.	8d/J	.	.	8f/J	.	.
!	!	!	!	!	!	!	!LO:HP:b
4E/	4AA\	4c#X/)	4A\	.	(>2e/	-nie	<
4r	4ryy	4r	4ryy	.	.	.	.
.	.	.	.	.	8qqgn,>/)	.	[
!!LO:LB:g=original
=72	=72	=72	=72	=72	=72	=72	=72
4.E/	2C\	4.g/	8B-\L	.	4gn/	Bo-	.
.	.	.	8c\	.	.	.	.
.	.	.	8B-\	.	8g/	-że!	.
8F/	.	8f/	8A\J	.	8f/	Ty	.
2G/	2C\	4f/	8B-\L	.	4f/	wła-	.
.	.	.	8c\	.	.	.	.
.	.	4e/	8B-\	.	4e/	-dco	.
.	.	.	8c\J	.	.	.	.
=73	=73	=73	=73	=73	=73	=73	=73
4.G/	2C\	4b-/	8e\L	.	4b-\	czło-	.
.	.	.	8c\J	.	.	.	.
.	.	8b-/L	4e\	.	8b-\	-wie-	.
8A/	.	8a/J	.	.	8a\	-czej	.
2B-/	2C\	4a/	8e\L	.	(<4a/	do-	.
.	.	.	8c\	.	.	.	.
.	.	4g/	8e\	.	4g/)	-li,	.
.	.	.	8c\J	.	.	.	.
!!LO:PB:g=original
=74	=74	=74	=74	=74	=74	=74	=74
4.F/	2C\	4a-X/	8c\L	.	4a-X/	U-	.
.	.	.	8A-X\J	.	.	.	.
.	.	8a-/L	4c\	.	8a-/	-słysz	.
8B-/	.	8g/J	.	.	8g/	serc	.
2ryy	2C\	4g/	8B-\L	.	(<4g/	na-	.
.	.	.	8c\	.	.	.	.
.	.	4f/	8A-\	.	4f/)	-szych	.
.	.	.	8c\J	.	.	.	.
=75	=75	=75	=75	=75	=75	=75	=75
*	*	*	*^	*	*	*	*
2F/	4C\	4a-X/	4ryy	8c\L	.	4a-X/	tę-	.
.	.	.	.	8A-X\	.	.	.	.
!	!	!	!	!	!LO:HP:b=2	!	!	!LO:HP:a:Bi:t=molto cresc&colon;
.	4D-X\	8b-/L	4f/	8B-\	<	8b-\	-skne	<
.	.	8bn/J	.	8Bn\J	.	8bn\	wo-	.
!	!	!LO:TX:a:Bi:t=rall&colon;	!	!	!	!	!	!
8G/L	2C\	2cc/	8e/L	2c\	.	4cc\	-ła-	.
8A-X 8F/	.	.	8a-X 8f/	.	.	.	.	.
8An 8F#X/	.	.	8an 8f#X/	.	[	4cc\	-nie,	.
8B-J 8G/	.	.	8b-XJ 8g/	.	.	.	.	.
!!LO:LB:g=original
=76	=76	=76	=76	=76	=76	=76	=76	=76
*ped	*	*	*	*	*	*	*	*
!	!	!	!	!	!	!LO:TX:a:Bi:t=a tempo	!	!
!LO:TX:a:t=P:znak pedalizacji przed nutą:problem	!	!	!	!	!	!	!	!
!	!	!	!	!	!LO:DY:b:rj	!	!	!LO:DY:b:rj
!LO:N:vis=3	!	!	!	!	!	!	!	!
(>12FF\L	2FF\	(>4cc/	2a 2f/	4c\	f	4cc\	Rrzek-	f
12C\	.	.	.	.	.	.	.	.
12F\	.	.	.	.	.	.	.	.
12A\	.	8.ee/L	.	8.e\L	.	8.ee\	-nij:	.
12F\)	.	.	.	.	.	.	.	.
12C\J	.	.	.	.	.	.	.	.
*Xped	*	*	*	*	*	*	*	*
.	.	16dd/Jk	.	16d\Jk	.	16dd\	"o	.
*ped	*	*	*	*	*	*	*	*
!LO:TX:a:t=P:znak pedalizacji przed nutą:problem	!	!	!	!	!	!	!	!
!LO:N:vis=3	!	!	!	!	!	!	!	!
(>12CC\L	2CC\	4.cc/	2e/	4.c\	.	(>4.cc\	lu-	.
12C\	.	.	.	.	.	.	.	.
12E\	.	.	.	.	.	.	.	.
12G\	.	.	.	.	.	.	.	.
12E\)	.	.	.	.	.	.	.	.
.	.	8b-/)	.	8B-\	.	8b-\)	-du	.
*Xped	*	*	*	*	*	*	*	*
12C\J	.	.	.	.	.	.	.	.
=77	=77	=77	=77	=77	=77	=77	=77	=77
*ped	*	*	*	*	*	*	*	*
!LO:TX:a:t=P:znak pedalizacji przed nutą:problem	!	!	!	!	!	!	!	!
!LO:N:vis=3	!	!	!	!	!	!	!	!
(>12DD\L	2DD\	(>4a/	2f 2d/	4A\	.	4a/	po-	.
12AA\	.	.	.	.	.	.	.	.
12D\	.	.	.	.	.	.	.	.
12F\	.	8.cc/L	.	8.c\L	.	8.cc\	-wstań	.
12D\	.	.	.	.	.	.	.	.
*Xped	*	*	*	*	*	*	*	*
12AA\J)	.	.	.	.	.	.	.	.
.	.	16b-/Jk	.	16B-\Jk	.	16b-\	z nie-	.
*ped	*	*	*	*	*	*	*	*
!LO:TX:a:t=P:znak pedalizacji przed nutą:problem	!	!	!	!	!	!	!	!
!LO:N:vis=3	!	!	!	!	!	!	!	!
(>12AAA\L	2AAA\	4.a/	2ryy	2c#X 2A\	.	(>4.a/	-do-	.
12AA\	.	.	.	.	.	.	.	.
12C#X\	.	.	.	.	.	.	.	.
12E\	.	.	.	.	.	.	.	.
12C#\)	.	.	.	.	.	.	.	.
.	.	8g/)	.	.	.	8g/)	-li,	.
*Xped	*	*	*	*	*	*	*	*
12AA\J	.	.	.	.	.	.	.	.
!!LO:LB:g=original
*v	*v	*	*	*	*	*	*	*
*	*	*v	*v	*	*	*	*
*	*v	*v	*	*	*	*
=78	=78	=78	=78	=78	=78
4D 4DD/	12r	.	4f/	A	.
.	12fL 12d 12A/	.	.	.	.
.	12fJ 12d 12A/	<	.	.	.
!	!	!	!LO:TX:a:Bi:t=stringendo	!	!
!	!	!	!	!	!LO:HP:b
4BB- 4BBB-/	12r	.	8.g/	sło-	<
.	12gL 12d 12G/	.	.	.	.
.	12g#XJ 12d 12G#X/	.	.	.	.
.	.	.	16g#X/	-wo	.
2AA 2AAA/	12r	.	4a/	cia-	[
.	12aL 12c#X 12A/	[	.	.	.
.	12aJ 12d 12Bn/	.	.	.	.
.	12aL 12e 12c#/	.	4a/	-łem	.
.	12a 12d 12B/	.	.	.	.
.	12aJ 12e 12c#/	.	.	.	.
=79	=79	=79	=79	=79	=79
4D 4DD/	12r	.	4a/	cia-	.
.	12aL 12f 12d 12A/	.	.	.	.
.	12aJ 12f 12d 12A/	.	.	.	.
!	!	!	!LO:TX:b:Bi:t=poco rit&colon;	!	!
4D-X 4DD-X/	12r	.	8.b-/	-łem	.
!	!LO:TX:b:Bi:t=poco rit&colon;	!	!	!	!
.	12b-L 12f 12B-/	.	.	.	.
.	12bnJ 12f 12Bn/	.	.	.	.
.	.	.	16bn/	się	.
4C 4CC/	12r	.	4cc\	sta-	.
.	12ccL 12e 12c/	.	.	.	.
.	12ccJ 12f 12d 12c/	.	.	.	.
12GL 12E 12C^>\	12ccL 12g 12e 12c^</	.	4cc\	-nie	.
12A 12F 12C^>\	12cc 12a 12f 12c^</	.	.	.	.
12B-XJ 12G 12C^>\	12ccJ 12b-X 12g 12c^</	.	.	.	.
!!LO:LB:g=original
=80	=80	=80	=80	=80	=80
*^	*	*	*	*	*
*	*	*^	*	*	*	*
*	*	*	*^	*	*	*	*
*ped	*	*	*	*	*	*	*	*
!	!	!LO:TX:b:Bi:t=a tempo.	!	!	!	!LO:TX:a:Bi:t=a tempo e grandioso.	!	!
!LO:TX:a:t=P:znak pedalizacji przed nutą:problem	!	!	!	!	!	!	!	!
!	!	!	!	!	!LO:DY:b:rj	!	!	!LO:DY:b:rj
12FFL 12FFF\	4ryy	4cc/	4a 4f/	4c\	ff	4cc\	Rrzek-	ff
12A 12F 12C\	.	.	.	.	.	.	.	.
*Xped	*	*	*	*	*	*	*	*
12AJ 12F 12C\	.	.	.	.	.	.	.	.
*ped	*	*	*	*	*	*	*	*
12FF\L	4ryy	8.ee/L	4ryy	8.g#XL 8.e\	.	8.ee\	-nij:	.
12G#X 12D 12BBn\	.	.	.	.	.	.	.	.
*Xped	*	*	*	*	*	*	*	*
12G#J 12D 12BB\	.	.	.	.	.	.	.	.
.	.	16dd/Jk	.	16g#Jk 16f 16d\	.	16dd\	"o-	.
*ped	*	*	*	*	*	*	*	*
!LO:TX:a:t=P:znak pedalizacji przed nutą:problem	!	!	!	!	!	!	!	!
!LO:N:vis=3	!	!	!	!	!	!	!	!
(>12CC\L	2CC\	(>4.cc/	2e/	4.c\	.	(>4.cc\	-lu-	.
12C\	.	.	.	.	.	.	.	.
12E\	.	.	.	.	.	.	.	.
12Gn\	.	.	.	.	.	.	.	.
12E\)	.	.	.	.	.	.	.	.
.	.	8b-/)	.	8B-\	.	8b-\)	-du	.
*Xped	*	*	*	*	*	*	*	*
12C\J	.	.	.	.	.	.	.	.
=81	=81	=81	=81	=81	=81	=81	=81	=81
*ped	*	*	*	*	*	*	*	*
!LO:TX:a:t=P:znak pedalizacji przed nutą:problem	!	!	!	!	!	!	!	!
12DDL 12DDD\	4ryy	4a/	2f 2d/	4A\	.	4a/	pow-	.
12F 12D 12AA\	.	.	.	.	.	.	.	.
12FJ 12D 12AA\	.	.	.	.	.	.	.	.
12DD\L	4ryy	8.cc/L	.	8.c\L	.	8.cc\	-stań	.
12F 12D 12AA\	.	.	.	.	.	.	.	.
*Xped	*	*	*	*	*	*	*	*
12FJ 12D 12AA\	.	.	.	.	.	.	.	.
.	.	16b-/Jk	.	16B-\Jk	.	16b-\	z nie-	.
*ped	*	*	*	*	*	*	*	*
!LO:TX:a:t=P:znak pedalizacji przed nutą:problem	!	!	!	!	!	!	!	!
!LO:N:vis=3	!	!	!	!	!	!	!	!
(>12AAA\L	2AAA\	(>4.a/	2ryy	2c#X 2A\	.	(>4.a/	-do-	.
12AA\	.	.	.	.	.	.	.	.
12C#X\	.	.	.	.	.	.	.	.
12E\)	.	.	.	.	.	.	.	.
12C#\	.	.	.	.	.	.	.	.
.	.	8g/)	.	.	.	8g/)	-li	.
*Xped	*	*	*	*	*	*	*	*
12AA\J	.	.	.	.	.	.	.	.
!!LO:PB:g=original
*v	*v	*	*	*	*	*	*	*
=82	=82	=82	=82	=82	=82	=82	=82
*tuplet	*	*	*	*	*	*	*
!LO:TUP:b:problem:brak klamry	!	!	!	!	!	!	!
6D 6DD/	12r	12ryy	12ryy	.	4f/	A	.
.	6f/	12d/L	6A\	.	.	.	.
12C 12CC/	.	12e-X/J	.	.	.	.	.
*Xtuplet	*	*	*	*	*	*	*
4BB- 4BBB-/	12r	12ryy	4ryy	.	8b-\	sło-	.
!	!	!LO:TX:a:t=P:problem:mixed beam	!	!	!	!	!
.	6f 6d/	12B-\L	.	.	.	.	.
.	.	.	.	.	8dd\	-wo	.
.	.	12F</J	.	.	.	.	.
4C 4CC/	12r	2ryy	2ryy	.	4cc\	cia-	.
.	12fL 12c 12A/	.	.	.	.	.	.
.	12fJ 12c 12A/	.	.	.	.	.	.
*tuplet	*	*	*	*	*	*	*
!LO:TUP:b:problem:brak klamry	!	!	!	!	!	!	!
6D 6DD/	12r	.	.	.	8f/	-łem	.
.	12fL 12B-/	.	.	.	.	.	.
.	.	.	.	.	8g/	się	.
12D-X 12DD-X/	12gJ 12f 12Bn/	.	.	.	.	.	.
*Xtuplet	*	*	*	*	*	*	*
*	*	*v	*v	*	*	*	*
=83	=83	=83	=83	=83	=83	=83
*^	*	*	*	*	*	*
*	*	*	*	*	*Xtuplet	*	*
!	!	!	!	!	!	!	!LO:HP:b
[>2C 2CC/	2ryy	4a 4f/	12c\L	.	4a/	sta-	>
!	!	!	!	!LO:HP:a	!	!	!
.	.	.	12d\	>	.	.	.
!	!	!LO:TX:b:Bi:t=rit&colon;	!	!	!	!	!
.	.	.	12c\J	.	.	.	.
!	!	!	!	!	!LO:TX:a:Bi:t=rit&colon;	!	!
.	.	4g 4e/	12B-X\L	.	12g/L	.	.
.	.	.	.	.	8qb-/	.	.
.	.	.	12c\	.	12a/	.	.
.	.	.	12B-\J	.	12g/J	.	]
4C/]	4FF\	4f/	4A\	] >	4f/	-nie	.
8FL 8FF\	4ryy	4r	4ryy	.	4r	.	.
8E-XJ 8EE-X\	.	.	.	]	.	.	.
!!LO:LB:g=original
*	*	*	*	*	*tuplet	*	*
*v	*v	*	*	*	*	*	*
*	*v	*v	*	*	*	*
=84	=84	=84	=84	=84	=84
!	!LO:TX:a:Bi:t=Adagio.	!	!LO:TX:a:Bi:t=Adagio.	!	!
!	!	!LO:DY:b:rj	!	!	!LO:DY:b:rj
(<4D-X 4DD-X/	(>4f 4d-X 4A-X/	p	4f/	A	p
4BB- 4BBB-/	4f 4d- 4B-/	.	(>8f/	sło-	.
.	.	.	8f/	-wo	.
!	!LO:TX:a:Bi:t=poco a poco ritar_dan_do.:dur=6q:ext=ud:problem:text with extention lines	!	!	!	!
4EE-X 4EEE-X/	4g-X 4e-X 4B-/	.	4g-X/	cia-	.
4FF 4FFF/)	4f 4d- 4A-/)	.	8f/	-łem	.
.	.	.	8f/)	się	.
=85	=85	=85	=85	=85	=85
(<2AA-X 2AAA-X/	(>2e-X 2c 2A-X/	.	(<2e-X/	sta-	.
2DD-X/)	2f 2d-X 2A-/)	.	4f/)	-nie	.
.	.	.	4r	.	.
!!LO:LB:g=original
=86	=86	=86	=86	=86	=86
*	*^	*	*	*	*
!	!	!	!LO:DY:b:Bi:t=%s.:rj	!	!	!LO:DY:b:rj
4BB- 4BBB-/	(>4f 4d-X 4B-/	2ryy	pp	4f/	A	pp
!	!	!	!	!	!	!LO:HP:b
4AA 4AAA/	4f 4e-X 4c/	.	>	8f/	sło-	>
.	.	.	.	8f/	-wo	.
!	!LO:TX:a:Bi:t=perdendosi.	!	!	!	!	!
2BB- 2BBB-/	2f/	4d- 4B-\	.	4f/	cia-	.
.	.	8cL 8A\	]	8f/	-łem	.
.	.	8B-J 8G\)	.	8f/	się	]]
*	*v	*v	*	*	*	*
=87	=87	=87	=87	=87	=87
1FF 1FFF	(>2f 2c 2A/	.	2f/	sta-	.
.	4c< 4A< 4F</	.	4f/	-nie!	.
.	4A< 4F< 4C</)	.	4r	.	.
!!LO:LB:g=original
=88	=88	=88	=88	=88	=88
!	!LO:TX:a:Bi:t=morendo.	!	!	!	!
!	!	!LO:DY:b:Bi:t=%s.:rj	!	!	!
2FF 2FFF\	2F< 2C< 2AA</	ppp >	1r	.	.
2FF< 2BBB-<\	2F< 2Dn< 2BB-</	]]	.	.	.
=89	=89	=89	=89	=89	=89
1FF 1CC 1FFF;<	1A< 1F< 1C< 1AA<;>	.	1r;>	.	.
==	==	==	==	==	==
*-	*-	*-	*-	*-	*-
!!title: @{OTL};
!!!RDF**kern: > = above
!!!RDF**kern: < = below
!!!RDF**dynam: > = "dim:", fontstyle= "bold-italic"
!!!RDF**dynam: < = "cresc:", fontstyle= "bold-italic"
!!!RDF**kern: | = vertical stroke
!!!RDF**kern: N = linked
!!!RDF**kern: i = editorial accidental
!!!EED: Wojciech Jakubiak-Danek
!!!EST: 2021-06-07
!!!URL-scan: http://repozytorium.nifc.pl/skany/pl-wtm-nut--r2296
!!!ONB-nifc:
!!!ENC: Berenika Jozajtis
!!!END: 2021-05-27
